X: 1
T:Chicken & Sparrow Grass. HA.002
T:Chicken & Asparagus,aka. HA.002
M:6/4
L:1/8
Q:200
C:Chicken & Asparagusaka
S:Henry Atkinson's original MS,Hartburn,N'umberland,1694.
O:England
A:Hartburn,Northumberland
N:This tune is interesting in the way it moves from 3 beats in the bar
N:for the first three bars ( 3/2 ) in the A strain, to 2 beats ( 6/4 ) in
N:the Bstrain...cf Pills to Purge Melancholy,1719..CGP.
H:1/8
Z:vmp.Chris Partington.Jan.2004
K:G
B2G2G2 Bcd2d2|c2A2A2 cde2e2|\
B2G2G2 Bcd2B2|e2c2d2G6:|!
|:g2gfed e2efge|a2agfe fefgaf|g2gfed e3fg2|a2f4 g6:|]
